( PCB Contour )
( Generated by Rapid-PCB.com )
( Material Size)
( X= 30.000, Y= 30.000, Z= 1.580)
()
G00
G17
G21
G40
G49
G54
G80
G90
G94
G00 F3000 Z3.000
M03 S9000
G00 F3000 X6.934 Y28.630
G00 F1500 Z0
G01 F600 Z-0.200
G01 F600 X7 Y28
G01 F600 X2 Y7
G01 F600 X28 Y2
G01 F600 X23 Y23
G01 F600 X7 Y28
G00 F3000 Z3.000
G00 F3000 X8 Y27
G00 F1500 Z0
G01 F600 Z-0.200
G01 F600 X22 Y22
G01 F600 X27 Y4
G01 F600 X3 Y8
G01 F600 X8 Y27
G00 F3000 Z3.000
G00 F3000 X0.000 Y0.000
M05
M30
%