( Generated by Carbide Copper )
( Material Size )
( X= 28.000, Y= 31.000, Z= 1.580 )
()
G17
G21
G54
G90
M05
(  )
T301 M06
( Contour )
M03 S10000
G0  X12.107 Y29.847
G0  Z3.000
G01 F400 Z0
G01 F400 Z-0.200
G01F400X11.871 Y29.797
X11.651 Y29.699
X11.457 Y29.558
X11.296 Y29.379
X11.175 Y29.170
X11.101 Y28.941
X11.076 Y28.702
X11.101 Y28.463
X11.175 Y28.234
X11.296 Y28.025
X11.457 Y27.846
X11.651 Y27.705
X11.871 Y27.607
X12.107 Y27.557
X13.547 Y27.557
X13.783 Y27.607
X14.003 Y27.705
X14.197 Y27.846
X14.267 Y27.924
X16.498 Y27.939
X18.297 Y27.936
X18.297 Y29.436
X16.497 Y29.436
X14.308 Y29.434
X14.197 Y29.558
X14.003 Y29.699
X13.783 Y29.797
X13.547 Y29.847
X12.107 Y29.847
G0 Z3.000
G0  X2.984 Y29.765
G0  Z3.000
G01 F400 Z0
G01 F400 Z-0.200
G01F400X2.830 Y29.733
X2.687 Y29.669
X2.560 Y29.576
X2.455 Y29.460
X2.376 Y29.324
X2.328 Y29.174
X2.313 Y29.031
X2.313 Y28.129
X1.348 Y28.129
X1.194 Y28.096
X1.051 Y28.032
X0.924 Y27.940
X0.818 Y27.823
X0.740 Y27.687
X0.691 Y27.538
X0.675 Y27.382
X0.691 Y27.225
X0.740 Y27.076
X0.818 Y26.940
X0.924 Y26.823
X1.051 Y26.731
X1.194 Y26.667
X1.348 Y26.634
X2.313 Y26.634
X2.313 Y25.732
X2.328 Y25.589
X2.376 Y25.440
X2.455 Y25.303
X2.560 Y25.187
X2.687 Y25.095
X2.830 Y25.031
X2.984 Y24.998
X3.141 Y24.998
X3.295 Y25.031
X3.438 Y25.095
X3.565 Y25.187
X3.671 Y25.303
X3.749 Y25.440
X3.798 Y25.589
X3.813 Y25.732
X3.813 Y26.634
X4.777 Y26.634
X4.931 Y26.667
X5.075 Y26.731
X5.202 Y26.823
X5.307 Y26.940
X5.385 Y27.076
X5.434 Y27.225
X5.450 Y27.382
X5.434 Y27.538
X5.385 Y27.687
X5.307 Y27.823
X5.202 Y27.940
X5.075 Y28.032
X4.931 Y28.096
X4.777 Y28.129
X3.813 Y28.129
X3.813 Y29.031
X3.798 Y29.174
X3.749 Y29.324
X3.671 Y29.460
X3.565 Y29.576
X3.438 Y29.669
X3.295 Y29.733
X3.141 Y29.765
X2.984 Y29.765
G0 Z3.000
G0  X20.271 Y27.621
G0  Z3.000
G01 F400 Z0
G01 F400 Z-0.200
G01F400X20.117 Y27.588
X19.974 Y27.524
X19.847 Y27.432
X19.741 Y27.315
X19.663 Y27.179
X19.614 Y27.030
X19.598 Y26.874
X19.614 Y26.717
X19.663 Y26.568
X19.741 Y26.432
X19.847 Y26.315
X19.974 Y26.223
X20.117 Y26.159
X20.271 Y26.126
X23.701 Y26.126
X23.854 Y26.159
X23.998 Y26.223
X24.125 Y26.315
X24.230 Y26.432
X24.308 Y26.568
X24.357 Y26.717
X24.373 Y26.874
X24.357 Y27.030
X24.308 Y27.179
X24.230 Y27.315
X24.125 Y27.432
X23.998 Y27.524
X23.854 Y27.588
X23.701 Y27.621
X20.271 Y27.621
G0 Z3.000
G0  X16.247 Y27.436
G0  Z3.000
G01 F400 Z0
G01 F400 Z-0.200
G01F400X16.247 Y25.936
X16.425 Y25.936
X16.422 Y8.173
X16.384 Y8.155
X16.087 Y7.940
X15.842 Y7.668
X15.659 Y7.351
X15.546 Y7.003
X15.509 Y6.652
X15.509 Y4.626
X15.546 Y4.275
X15.659 Y3.927
X15.842 Y3.609
X16.087 Y3.337
X16.319 Y3.169
X16.283 Y3.133
X15.233 Y3.133
X15.130 Y3.315
X14.885 Y3.588
X14.588 Y3.803
X14.254 Y3.952
X13.896 Y4.028
X11.530 Y4.028
X11.171 Y3.952
X10.837 Y3.803
X10.541 Y3.588
X10.296 Y3.315
X10.113 Y2.998
X10.000 Y2.650
X9.961 Y2.286
X10.000 Y1.922
X10.113 Y1.574
X10.296 Y1.257
X10.541 Y0.985
X10.837 Y0.769
X11.171 Y0.620
X11.530 Y0.544
X13.896 Y0.544
X14.254 Y0.620
X14.588 Y0.769
X14.885 Y0.985
X15.130 Y1.257
X15.228 Y1.427
X16.727 Y1.440
X16.900 Y1.476
X17.063 Y1.549
X17.201 Y1.649
X17.842 Y2.290
X17.948 Y2.408
X18.037 Y2.562
X18.092 Y2.731
X18.109 Y2.895
X18.109 Y3.111
X18.135 Y3.122
X18.431 Y3.337
X18.676 Y3.609
X18.859 Y3.927
X18.972 Y4.275
X19.009 Y4.626
X19.009 Y6.652
X18.972 Y7.003
X18.859 Y7.351
X18.676 Y7.668
X18.431 Y7.940
X18.135 Y8.155
X18.122 Y8.161
X18.122 Y16.933
X19.166 Y16.933
X19.356 Y16.604
X19.636 Y16.293
X19.974 Y16.047
X20.357 Y15.877
X20.766 Y15.790
X23.684 Y15.790
X24.094 Y15.877
X24.476 Y16.047
X24.814 Y16.293
X25.094 Y16.604
X25.303 Y16.966
X25.433 Y17.364
X25.476 Y17.780
X25.433 Y18.196
X25.303 Y18.594
X25.094 Y18.956
X24.814 Y19.267
X24.476 Y19.513
X24.094 Y19.683
X23.684 Y19.770
X20.766 Y19.770
X20.357 Y19.683
X19.974 Y19.513
X19.636 Y19.267
X19.356 Y18.956
X19.166 Y18.627
X18.122 Y18.627
X18.122 Y25.944
X18.297 Y25.968
X18.297 Y27.436
X16.247 Y27.436
G0 Z3.000
G0  X12.107 Y27.307
G0  Z3.000
G01 F400 Z0
G01 F400 Z-0.200
G01F400X11.871 Y27.257
X11.651 Y27.159
X11.457 Y27.018
X11.449 Y27.009
X6.007 Y27.009
X5.833 Y26.972
X5.670 Y26.899
X5.532 Y26.799
X2.592 Y23.859
X2.486 Y23.741
X2.397 Y23.587
X2.342 Y23.418
X2.337 Y23.364
X2.290 Y23.364
X2.290 Y19.816
X2.325 Y19.816
X2.325 Y19.643
X1.716 Y19.643
X1.306 Y19.556
X0.924 Y19.386
X0.586 Y19.140
X0.306 Y18.829
X0.097 Y18.467
X-0.033 Y18.069
X-0.076 Y17.653
X-0.033 Y17.237
X0.097 Y16.839
X0.306 Y16.477
X0.586 Y16.166
X0.924 Y15.920
X1.306 Y15.750
X1.716 Y15.663
X4.634 Y15.663
X5.043 Y15.750
X5.426 Y15.920
X5.764 Y16.166
X6.044 Y16.477
X6.253 Y16.839
X6.383 Y17.237
X6.426 Y17.653
X6.383 Y18.069
X6.253 Y18.467
X6.044 Y18.829
X5.764 Y19.140
X5.426 Y19.386
X5.043 Y19.556
X4.634 Y19.643
X4.025 Y19.643
X4.025 Y19.816
X4.060 Y19.816
X4.060 Y22.925
X6.450 Y25.315
X11.449 Y25.315
X11.457 Y25.306
X11.651 Y25.165
X11.871 Y25.067
X12.107 Y25.017
X13.547 Y25.017
X13.783 Y25.067
X14.003 Y25.165
X14.197 Y25.306
X14.359 Y25.485
X14.479 Y25.694
X14.553 Y25.923
X14.578 Y26.162
X14.553 Y26.401
X14.479 Y26.630
X14.359 Y26.839
X14.197 Y27.018
X14.003 Y27.159
X13.783 Y27.257
X13.547 Y27.307
X12.107 Y27.307
G0 Z3.000
G0  X12.592 Y24.464
G0  Z3.000
G01 F400 Z0
G01 F400 Z-0.200
G01F400X12.131 Y24.366
X11.701 Y24.175
X11.321 Y23.898
X11.006 Y23.548
X10.770 Y23.141
X10.748 Y23.072
X10.198 Y23.072
X10.024 Y23.035
X9.861 Y22.962
X9.723 Y22.862
X9.298 Y22.437
X8.378 Y22.437
X8.378 Y23.364
X6.608 Y23.364
X6.608 Y19.816
X8.378 Y19.816
X8.378 Y20.743
X9.741 Y20.743
X9.915 Y20.780
X10.078 Y20.853
X10.216 Y20.953
X10.641 Y21.378
X10.748 Y21.378
X10.770 Y21.309
X11.006 Y20.902
X11.321 Y20.552
X11.701 Y20.275
X12.131 Y20.084
X12.592 Y19.986
X13.062 Y19.986
X13.523 Y20.084
X13.953 Y20.275
X14.334 Y20.552
X14.648 Y20.902
X14.884 Y21.309
X15.029 Y21.757
X15.078 Y22.225
X15.029 Y22.693
X14.884 Y23.141
X14.648 Y23.548
X14.334 Y23.898
X13.953 Y24.175
X13.523 Y24.366
X13.062 Y24.464
X12.592 Y24.464
G0 Z3.000
G0  X12.592 Y19.764
G0  Z3.000
G01 F400 Z0
G01 F400 Z-0.200
G01F400X12.131 Y19.666
X11.701 Y19.475
X11.321 Y19.198
X11.006 Y18.848
X10.770 Y18.441
X10.748 Y18.373
X9.436 Y18.373
X9.262 Y18.336
X9.099 Y18.263
X8.961 Y18.163
X7.926 Y17.128
X7.820 Y17.010
X7.731 Y16.856
X7.676 Y16.687
X7.659 Y16.523
X7.659 Y9.512
X7.676 Y9.348
X7.731 Y9.179
X7.820 Y9.025
X7.926 Y8.907
X8.834 Y7.999
X8.972 Y7.899
X9.135 Y7.826
X9.309 Y7.789
X10.192 Y7.789
X10.295 Y7.607
X10.541 Y7.335
X10.837 Y7.119
X11.171 Y6.970
X11.530 Y6.894
X13.896 Y6.894
X14.254 Y6.970
X14.588 Y7.119
X14.885 Y7.335
X15.130 Y7.607
X15.313 Y7.924
X15.426 Y8.272
X15.464 Y8.636
X15.426 Y9.000
X15.313 Y9.348
X15.130 Y9.665
X14.885 Y9.938
X14.588 Y10.153
X14.254 Y10.302
X13.896 Y10.378
X11.530 Y10.378
X11.171 Y10.302
X10.837 Y10.153
X10.541 Y9.938
X10.296 Y9.665
X10.197 Y9.493
X9.750 Y9.485
X9.359 Y9.876
X9.359 Y16.159
X9.879 Y16.679
X10.748 Y16.679
X10.770 Y16.609
X11.006 Y16.202
X11.321 Y15.852
X11.701 Y15.575
X12.131 Y15.384
X12.592 Y15.286
X13.062 Y15.286
X13.523 Y15.384
X13.953 Y15.575
X14.334 Y15.852
X14.648 Y16.202
X14.884 Y16.609
X15.029 Y17.057
X15.078 Y17.525
X15.029 Y17.993
X14.884 Y18.441
X14.648 Y18.848
X14.334 Y19.198
X13.953 Y19.475
X13.523 Y19.666
X13.062 Y19.764
X12.592 Y19.764
G0 Z3.000
G0  X12.592 Y15.064
G0  Z3.000
G01 F400 Z0
G01 F400 Z-0.200
G01F400X12.131 Y14.966
X11.701 Y14.775
X11.321 Y14.498
X11.006 Y14.148
X10.770 Y13.741
X10.625 Y13.293
X10.576 Y12.825
X10.625 Y12.357
X10.770 Y11.909
X11.006 Y11.502
X11.321 Y11.152
X11.701 Y10.875
X12.131 Y10.684
X12.592 Y10.586
X13.062 Y10.586
X13.523 Y10.684
X13.953 Y10.875
X14.334 Y11.152
X14.648 Y11.502
X14.884 Y11.909
X15.029 Y12.357
X15.078 Y12.825
X15.029 Y13.293
X14.884 Y13.741
X14.648 Y14.148
X14.334 Y14.498
X13.953 Y14.775
X13.523 Y14.966
X13.062 Y15.064
X12.592 Y15.064
G0 Z3.000
M05
(  )
T1 M06
( Drilling )
M03 S10000
G00 X12.827 Y26.162
G0  Z3.000
G01 F250.0 Z-1.780
G00 Z3.000
G00 X12.827 Y28.702
G0  Z3.000
G01 F250.0 Z-1.780
G00 Z3.000
M05
(  )
T2 M06
( Drilling )
M03 S10000
G00 X11.663 Y8.636
G0  Z3.000
G01 F250.0 Z-1.780
G00 Z3.000
G00 X13.763 Y2.286
G0  Z3.000
G01 F250.0 Z-1.780
G00 Z3.000
G00 X17.259 Y6.689
G0  Z3.000
G01 F250.0 Z-1.780
G00 Z3.000
G00 X4.325 Y17.653
G0  Z3.000
G01 F250.0 Z-1.780
G00 Z3.000
G00 X23.375 Y17.780
G0  Z3.000
G01 F250.0 Z-1.780
G00 Z3.000
M05
(  )
T3 M06
( Drilling )
M03 S10000
G00 X12.827 Y12.825
G0  Z3.000
G01 F250.0 Z-1.780
G00 Z3.000
G00 X12.827 Y17.525
G0  Z3.000
G01 F250.0 Z-1.780
G00 Z3.000
G00 X12.827 Y22.225
G0  Z3.000
G01 F250.0 Z-1.780
G00 Z3.000
M05
(  )
T101 M06
( Routing )
M03 S10000
G0  X2.360 Y32.194
G0  Z3.000
G01 F200 Z0
G01 F200 Z-0.790
G01F200X2.008 Y32.119
X1.678 Y31.972
X1.421 Y31.785
X-1.237 Y29.128
X-1.394 Y28.953
X-1.574 Y28.641
X-1.686 Y28.298
X-1.715 Y28.023
X-1.715 Y15.157
X-1.686 Y14.882
X-1.574 Y14.539
X-1.394 Y14.227
X-1.237 Y14.053
X3.366 Y9.450
X3.366 Y-0.083
X3.394 Y-0.358
X3.506 Y-0.701
X3.686 Y-1.013
X3.927 Y-1.281
X4.218 Y-1.492
X4.548 Y-1.639
X4.900 Y-1.714
X20.500 Y-1.714
X20.853 Y-1.639
X21.182 Y-1.492
X21.473 Y-1.281
X21.714 Y-1.013
X21.894 Y-0.701
X22.006 Y-0.358
X22.035 Y-0.083
X22.035 Y9.450
X26.638 Y14.053
X26.795 Y14.228
X26.974 Y14.539
X27.086 Y14.882
X27.114 Y15.157
X27.114 Y28.023
X27.086 Y28.298
X26.974 Y28.641
X26.794 Y28.953
X26.637 Y29.128
X23.979 Y31.785
X23.722 Y31.972
X23.393 Y32.119
X23.040 Y32.194
X2.360 Y32.194
G0 Z3.000
M03 S10000
G0  X2.360 Y32.194
G0  Z3.000
G01 F200 Z0
G01 F200 Z-1.580
G01F200X2.008 Y32.119
X1.678 Y31.972
X1.421 Y31.785
X-1.237 Y29.128
X-1.394 Y28.953
X-1.574 Y28.641
X-1.686 Y28.298
X-1.715 Y28.023
X-1.715 Y15.157
X-1.686 Y14.882
X-1.574 Y14.539
X-1.394 Y14.227
X-1.237 Y14.053
X3.366 Y9.450
X3.366 Y-0.083
X3.394 Y-0.358
X3.506 Y-0.701
X3.686 Y-1.013
X3.927 Y-1.281
X4.218 Y-1.492
X4.548 Y-1.639
X4.900 Y-1.714
X20.500 Y-1.714
X20.853 Y-1.639
X21.182 Y-1.492
X21.473 Y-1.281
X21.714 Y-1.013
X21.894 Y-0.701
X22.006 Y-0.358
X22.035 Y-0.083
X22.035 Y9.450
X26.638 Y14.053
X26.795 Y14.228
X26.974 Y14.539
X27.086 Y14.882
X27.114 Y15.157
X27.114 Y28.023
X27.086 Y28.298
X26.974 Y28.641
X26.794 Y28.953
X26.637 Y29.128
X23.979 Y31.785
X23.722 Y31.972
X23.393 Y32.119
X23.040 Y32.194
X2.360 Y32.194
G0 Z3.000
G00 Z3.000
M05
M30
%